img/svg/telegram.svg

<svg width="18" height="16" viewBox="0 0 18 16" fill="none" xmlns="http://www.w3.org/2000/svg">
<path d="M1.06266 7.05405C1.06266 7.05405 8.72878 3.8344 11.3875 2.70073C12.4067 2.24726 15.8631 0.79615 15.8631 0.79615C15.8631 0.79615 17.4584 0.161291 17.3255 1.70309C17.2812 2.33795 16.9266 4.55996 16.5721 6.96335C16.0404 10.3644 15.4643 14.0828 15.4643 14.0828C15.4643 14.0828 15.3757 15.1258 14.6224 15.3072C13.8691 15.4886 12.6283 14.6724 12.4067 14.491C12.2295 14.3549 9.08328 12.3143 7.93115 11.3167C7.62096 11.0446 7.26646 10.5004 7.97546 9.86556C9.57072 8.36911 11.4762 6.50988 12.6283 5.33086C13.1601 4.78669 13.6918 3.51697 11.4762 5.05877C8.32996 7.28078 5.22807 9.36675 5.22807 9.36675C5.22807 9.36675 4.51906 9.82022 3.18968 9.41209C1.86029 9.00397 0.309345 8.45981 0.309345 8.45981C0.309345 8.45981 -0.754163 7.7796 1.06266 7.05405Z" fill="white"/>
</svg>

<svg width="18" height="16" viewBox="0 0 18 16" fill="none" xmlns="http://www.w3.org/2000/svg"><path d="M1.063 7.054s7.666-3.22 10.325-4.353c1.019-.454 4.475-1.905 4.475-1.905s1.595-.635 1.463.907c-.045.635-.4 2.857-.754 5.26-.532 3.401-1.108 7.12-1.108 7.12s-.088 1.043-.842 1.224c-.753.182-1.994-.635-2.215-.816-.178-.136-3.324-2.177-4.476-3.174-.31-.272-.665-.817.044-1.451a170.61 170.61 0 004.653-4.535c.532-.544 1.064-1.814-1.152-.272C8.33 7.28 5.228 9.367 5.228 9.367s-.709.453-2.038.045C1.86 9.004.31 8.46.31 8.46s-1.064-.68.753-1.406z" fill="#fff"/></svg>
